X:578
T:Philabelula All the Way
M:4/4
Q:1/2=76
M:2/2
L:1/8
K:D
|: f>e | "D"d>c d>B A2 G>F | "Em"E>E F>G "A7"A2 B>c | "D"d>B A>B "A7"d>d e>c | "D"d2 f2 d2 :|
d>e | "D"f2 f2 "Bm"f2 g>f | "Em"g>f e>d "A7"e4 | "Bm"d2 d2 "E7"d2 e>d | "A"c>B A2 "A7"A2 B>c |
| "D"(3ded (3cBA "G"B>c "D"d2 | "D"(3ded (3cBA "G"B>c "D"d2 | "Em"e2 (3efg "A7"a2 (3ABc | "D"d2 f2 d2 |]
N:Replace by blank line and X field
T:There's Nae Luck Aboot the Hoose
M:4/4
L:1/8
K:G
|: (3def | "G"g>e d>B "C"c>d e>f | "G"g>e d>B "D7"A2 (3def | "G"g>e d>B "C"c>d e>g | "D7"d>c B>A "G"G2 :|
|: G>A | "G"B2 B>G "C"c2 c>A | "G"B2 B>G "F"A2 A>G | "G"B2 B>G "C"c>d e>g | "D7"d>c B>A "G"G2 :|
N:Replace by blank line and X field
T:Kafoozalum
M:4/4
L:1/8
K:D
|: "D"a2 a>g f>g a2 | "A7"e>f g>f e>f g2 | "D"a2 a>g f>g a2 | "D"d>e f>d "A7"e2 "D"d2 :|
|: "D"f>d A>d f>d f2 | "C"g>e =c>e g>e g2 | "D"f>d A>d f>d f2 | "D"d>e f>d "A7"e2 "D"d2 :|
N:Replace by blank line and X field
T:Keel Row
S:Colin Hume's website,  colinhume.com  - chords can also be printed below the stave.
M:4/4
L:1/8
K:G
|: "D7"d>c | "G"B2 G>B "Am"c2 A>c | "G"B2 G>B "D7"A>F D>c | "G"B2 G>B "Am"c2 A>c | "D7"B>G A>F "G"G2 :|
|: "D7"d>c | "G"B<d d>g "C"e2 d>c | "G"B2 G>B "D7"A>F D>c | "G"B<d d>g "C"e2 d>c | "D7"B>G A>F "G"G2 :|

